packages/sources/icons/src/vitamix/database-fill.svg

<svg width="16" height="16" viewBox="0 0 16 16" fill="none" xmlns="http://www.w3.org/2000/svg">
<path fill-rule="evenodd" clip-rule="evenodd" d="M2 5C2 6.65667 4.68667 8 8 8C11.3133 8 14 6.65667 14 5C14 3.34333 11.3133 2 8 2C4.68667 2 2 3.34333 2 5ZM14 6.33333V8.33333C14 9.99 11.3133 11.3333 8 11.3333C4.68667 11.3333 2 9.99 2 8.33333V6.33333C2 7.99 4.68667 9.33333 8 9.33333C11.3133 9.33333 14 7.99 14 6.33333ZM2 9.66667C2 11.3233 4.68667 12.6667 8 12.6667C11.3133 12.6667 14 11.3233 14 9.66667V11.6667C14 13.3233 11.3133 14.6667 8 14.6667C4.68667 14.6667 2 13.3233 2 11.6667V9.66667Z" fill="#001018"/>
</svg>

<svg width="16" height="16" fill="none" xmlns="http://www.w3.org/2000/svg"><path fill-rule="evenodd" clip-rule="evenodd" d="M2 5c0 1.657 2.687 3 6 3s6-1.343 6-3-2.687-3-6-3-6 1.343-6 3zm12 1.333v2c0 1.657-2.687 3-6 3s-6-1.343-6-3v-2c0 1.657 2.687 3 6 3s6-1.343 6-3zM2 9.667c0 1.656 2.687 3 6 3s6-1.344 6-3v2c0 1.656-2.687 3-6 3s-6-1.344-6-3v-2z" fill="#001018"/></svg>
